X:014
L:1/8
M:6/8
K:Am
E | EAA ABc | Bee e2 d | cBA ABc | B^GE E2 E |
EAA ABc | Bee e2 d | cBA B^GE | (A3 A2) ::

